packages/crayons-core/src/components/icon/icon-assets/icons/agent.svg

<?xml version="1.0" encoding="UTF-8"?>
<svg width="14px" height="14px" viewBox="0 0 14 14" version="1.1" xmlns="http://www.w3.org/2000/svg" xmlns:xlink="http://www.w3.org/1999/xlink">
    <!-- Generator: Sketch 52.6 (67491) - http://www.bohemiancoding.com/sketch -->
    <title>icon/agent</title>
    <desc>Created with Sketch.</desc>
    <g id="Icons-✅" stroke="none" stroke-width="1" fill="none" fill-rule="evenodd">
        <g id="Icons" transform="translate(-163.000000, -2917.000000)" fill="currentColor">
            <g id="icon/agent" transform="translate(163.000000, 2917.000000)">
                <g id="agent">
                    <path d="M7,4.4408921e-16 C3.13400675,-2.22044605e-16 4.4408921e-16,3.13400675 0,7 L0,11.3 C-5.55111512e-16,12.0160845 0.284463469,12.7028401 0.790811691,13.2091883 C1.29715991,13.7155365 1.98391548,14 2.7,14 L3.76,14 C4.14659932,14 4.46,13.6865993 4.46,13.3 L4.46,8.7 C4.46,8.31340068 4.14659932,8 3.76,8 L2.7,8 C2.24430231,8.00673581 1.79748177,8.12703364 1.4,8.35 L1.4,7 C1.40000007,3.90720545 3.90720545,1.40000012 7,1.40000012 C10.0927946,1.40000012 12.5999999,3.90720545 12.6,7 L12.6,8.35 C12.2025182,8.12703364 11.7556977,8.00673581 11.3,8 L10.24,8 C9.85340068,8 9.54,8.31340068 9.54,8.7 L9.54,13.3 C9.54,13.6865993 9.85340068,14 10.24,14 L11.3,14 C12.7911688,14 14,12.7911688 14,11.3 L14,7 C14,3.13400675 10.8659932,2.22044605e-16 7,4.4408921e-16 Z M2.7,9.4 L3.06,9.4 L3.06,12.6 L2.7,12.6 C1.98202983,12.6 1.4,12.0179702 1.4,11.3 L1.4,10.7 C1.4,9.98202983 1.98202983,9.4 2.7,9.4 Z M12.6,11.3 C12.6,12.0179702 12.0179702,12.6 11.3,12.6 L10.94,12.6 L10.94,9.4 L11.3,9.4 C12.0179702,9.4 12.6,9.98202983 12.6,10.7 L12.6,11.3 Z" id="Shape"></path>
                </g>
            </g>
        </g>
    </g>
</svg>

<svg viewBox="0 0 14 14"><path d="M7 0a7 7 0 0 0-7 7v4.3A2.7 2.7 0 0 0 2.7 14h1.06a.7.7 0 0 0 .7-.7V8.7a.7.7 0 0 0-.7-.7H2.7a2.74 2.74 0 0 0-1.3.35V7a5.6 5.6 0 0 1 11.2 0v1.35A2.74 2.74 0 0 0 11.3 8h-1.06a.7.7 0 0 0-.7.7v4.6a.7.7 0 0 0 .7.7h1.06a2.7 2.7 0 0 0 2.7-2.7V7a7 7 0 0 0-7-7zM2.7 9.4h.36v3.2H2.7a1.3 1.3 0 0 1-1.3-1.3v-.6a1.3 1.3 0 0 1 1.3-1.3zm9.9 1.9a1.3 1.3 0 0 1-1.3 1.3h-.36V9.4h.36a1.3 1.3 0 0 1 1.3 1.3v.6z" fill="currentColor" fill-rule="evenodd"/></svg>
